svgs/sharp-light/boot-heeled.svg

<svg xmlns="http://www.w3.org/2000/svg" viewBox="0 0 512 512"><!--! Font Awesome Pro 6.6.0 by @fontawesome - https://fontawesome.com License - https://fontawesome.com/license (Commercial License) Copyright 2024 Fonticons, Inc. --><path d="M141 418.8L278.8 480 432 480l16 0 0-60.2L241.7 316.6 224 307.8l0-19.8 0-256-96 0 0 208 0 16-32 0 0-16L96 32 32 32l0 30L55.8 252l.6 5-.9 4.9L32 387l0 29 96 0 6.8 0 6.2 2.8zM128 0l96 0 32 0 0 32 0 256L480 400l0 80 16 0 16 0 0 32-16 0-16 0-32 0-16 0-160 0L160 462.2l0 33.8 0 16-16 0L16 512 0 512l0-16 0-48 0-16 0-16 0-32L24 256 0 64 0 32 0 0 32 0 96 0l32 0zm0 448l-96 0 0 32 96 0 0-32z"/></svg>

<svg xmlns="http://www.w3.org/2000/svg" viewBox="0 0 512 512"><!--! Font Awesome Pro 6.4.0 by @fontawesome - https://fontawesome.com License - https://fontawesome.com/license (Commercial License) Copyright 2023 Fonticons, Inc. --><path d="M141 418.8L278.8 480H432h16V419.8L241.7 316.6 224 307.8V288 32H128V240v16H96V240 32H32V62L55.8 252l.6 5-.9 4.9L32 387v29h96 6.8l6.2 2.8zM128 0h96 32V32 288L480 400v80h16 16v32H496 480 448 432 272L160 462.2V496v16H144 16 0V496 448 432 416 384L24 256 0 64V32 0H32 96h32zm0 448H32v32h96V448z"/></svg>
